images/Arkos/moreDataTypes.svg

<svg version="1.1" xmlns="http://www.w3.org/2000/svg" xmlns:xlink="http://www.w3.org/1999/xlink" width="640.03165" height="360.7322" viewBox="0,0,640.03165,360.7322"><g transform="translate(0.24867,-0.2769)"><g data-paper-data="{&quot;isPaintingLayer&quot;:true}" fill-rule="nonzero" stroke="none" stroke-linecap="butt" stroke-linejoin="miter" stroke-miterlimit="10" stroke-dasharray="" stroke-dashoffset="0" style="mix-blend-mode: normal"><path d="M-0.24867,361.0091v-360.0178h640.03165v360.0178z" fill="#f3634b" stroke-width="1"/><path d="M546.43618,46.85969l62.86311,36.32439v72.49221l-62.86311,36.32439l-62.86311,-36.32439v-72.49221z" fill="#de4025" stroke-width="1"/><path d="M579.11192,244.00129l46.73565,27.00134v54.00267l-46.73565,27.00134l-46.73565,-27.00134v-54.00267z" fill="#de4025" stroke-width="1"/><path d="M413.3709,244.00129l46.73802,27.00134v54.00267l-46.73802,27.00134l-46.73802,-27.00134v-54.00267z" fill="#de4025" stroke-width="1"/><path d="M53.4201,201.00258l49.06909,28.33473v56.66946l-49.06909,28.33473l-49.06909,-28.33473v-56.66946z" fill="#de4025" stroke-width="1"/><path d="M408.34757,0.43569l29.82524,17.22246v56.66946l-49.06909,28.33473l-49.06909,-28.33473v-56.66946l28.60922,-16.52027z" fill="#de4025" stroke-width="1"/><path d="M188.45397,78.99791l46.75997,27.00134v54.00267l-46.75997,27.00134l-46.75997,-27.00134v-54.00267z" fill="#de4025" stroke-width="1"/><path d="M200.09451,280.00446l47.93571,27.66804v51.92077l-95.87142,0.5v-52.42077z" fill="#de4025" stroke-width="1"/><path d="M106.73116,0.2769l18.31234,10.57884v69.60759l-60.24657,34.8038l-60.24657,-34.8038v-69.60759l17.49419,-10.10621z" fill="#de4025" stroke-width="1"/><path d="M357.4373,119.33122l49.06909,28.33473v56.66946l-49.06909,28.33473l-49.06909,-28.33473v-56.66946z" fill="#de4025" stroke-width="1"/><path d="M217.61719,283.15016v-204.29992h204.29992v204.29992z" fill="none" stroke-width="0"/><path d="M312.8881,115.17159v24.45883c0,4.22135 -3.42204,7.64338 -7.64338,7.64338h-51.21067c-4.22135,0 -7.64338,-3.42204 -7.64338,-7.64338v-24.45883c0,-4.22135 3.42204,-7.64338 7.64338,-7.64338h51.21067c4.22135,0 7.64338,3.42204 7.64338,7.64338zM393.14363,115.17159v24.45883c0,4.22135 -3.42204,7.64338 -7.64338,7.64338h-51.21067c-4.22135,0 -7.64338,-3.42204 -7.64338,-7.64338v-24.45883c0,-4.22135 3.42204,-7.64338 7.64338,-7.64338h51.21067c4.22135,0 7.64338,3.42204 7.64338,7.64338zM312.8881,168.67529v24.45883c0,4.22135 -3.42204,7.64338 -7.64338,7.64338h-51.21067c-4.22135,0 -7.64338,-3.42204 -7.64338,-7.64338v-24.45883c0,-4.22135 3.42204,-7.64338 7.64338,-7.64338h51.21067c4.22135,0 7.64338,3.42204 7.64338,7.64338zM393.14363,168.7708v24.45883c0,4.22135 -3.42204,7.64338 -7.64338,7.64338h-51.21067c-4.22135,0 -7.64338,-3.42204 -7.64338,-7.64338v-24.45883c0,-4.22135 3.42204,-7.64338 7.64338,-7.64338h51.21067c4.22135,0 7.64338,3.42204 7.64338,7.64338zM312.8881,222.36999v24.45883c0,4.22135 -3.42204,7.64338 -7.64338,7.64338h-51.21067c-4.22135,0 -7.64338,-3.42204 -7.64338,-7.64338v-24.45883c0,-4.22135 3.42204,-7.64338 7.64338,-7.64338h51.21067c4.22135,0 7.64338,3.42204 7.64338,7.64338zM393.14363,222.36999v24.45883c0,4.22135 -3.42204,7.64338 -7.64338,7.64338h-51.21067c-4.22135,0 -7.64338,-3.42204 -7.64338,-7.64338v-24.45883c0,-4.22135 3.42204,-7.64338 7.64338,-7.64338h51.21067c4.22135,0 7.64338,3.42204 7.64338,7.64338z" fill="#ffffff" stroke-width="1"/></g></g></svg><!--rotationCenter:320.24867:179.7231003737709-->

<?xml version="1.0" encoding="UTF-8" standalone="no"?>
<svg
   version="1.1"
   width="640.03168"
   height="320"
   viewBox="0 0 640.03165 319.99999"
   id="svg13"
   sodipodi:docname="moreDataTypes.svg"
   inkscape:export-filename="moreDataTypes.png"
   inkscape:export-xdpi="96"
   inkscape:export-ydpi="96"
   xmlns:inkscape="http://www.inkscape.org/namespaces/inkscape"
   xmlns:sodipodi="http://sodipodi.sourceforge.net/DTD/sodipodi-0.dtd"
   xmlns="http://www.w3.org/2000/svg"
   xmlns:svg="http://www.w3.org/2000/svg">
  <defs
     id="defs13">
    <clipPath
       clipPathUnits="userSpaceOnUse"
       id="clipPath16">
      <rect
         style="fill:#000000;stroke-width:1.02874"
         id="rect16"
         width="667.98651"
         height="320"
         x="-0.98814577"
         y="20" />
    </clipPath>
  </defs>
  <sodipodi:namedview
     id="namedview13"
     pagecolor="#ffffff"
     bordercolor="#000000"
     borderopacity="0.25"
     inkscape:showpageshadow="2"
     inkscape:pageopacity="0.0"
     inkscape:pagecheckerboard="0"
     inkscape:deskcolor="#d1d1d1" />
  <g
     id="g15"
     clip-path="url(#clipPath16)"
     transform="translate(0,-20)">
    <g
       inkscape:label="Clip"
       id="g14">
      <g
         transform="translate(0.24867,-0.2769)"
         id="g13">
        <g
           data-paper-data="{&quot;isPaintingLayer&quot;:true}"
           fill-rule="nonzero"
           stroke="none"
           stroke-linecap="butt"
           stroke-linejoin="miter"
           stroke-miterlimit="10"
           stroke-dasharray="none"
           stroke-dashoffset="0"
           style="mix-blend-mode:normal"
           id="g12">
          <path
             d="M -0.24867,361.0091 V 0.9913 h 640.03165 v 360.0178 z"
             fill="#f3634b"
             stroke-width="1"
             id="path1" />
          <path
             d="m 546.43618,46.85969 62.86311,36.32439 v 72.49221 l -62.86311,36.32439 -62.86311,-36.32439 V 83.18408 Z"
             fill="#de4025"
             stroke-width="1"
             id="path2" />
          <path
             d="m 579.11192,244.00129 46.73565,27.00134 v 54.00267 l -46.73565,27.00134 -46.73565,-27.00134 v -54.00267 z"
             fill="#de4025"
             stroke-width="1"
             id="path3" />
          <path
             d="m 413.3709,244.00129 46.73802,27.00134 V 325.0053 L 413.3709,352.00664 366.63288,325.0053 v -54.00267 z"
             fill="#de4025"
             stroke-width="1"
             id="path4" />
          <path
             d="m 53.4201,201.00258 49.06909,28.33473 v 56.66946 L 53.4201,314.3415 4.35101,286.00677 v -56.66946 z"
             fill="#de4025"
             stroke-width="1"
             id="path5" />
          <path
             d="m 408.34757,0.43569 29.82524,17.22246 V 74.32761 L 389.10372,102.66234 340.03463,74.32761 V 17.65815 L 368.64385,1.13788 Z"
             fill="#de4025"
             stroke-width="1"
             id="path6" />
          <path
             d="m 188.45397,78.99791 46.75997,27.00134 v 54.00267 L 188.45397,187.00326 141.694,160.00192 v -54.00267 z"
             fill="#de4025"
             stroke-width="1"
             id="path7" />
          <path
             d="m 200.09451,280.00446 47.93571,27.66804 v 51.92077 l -95.87142,0.5 V 307.6725 Z"
             fill="#de4025"
             stroke-width="1"
             id="path8" />
          <path
             d="M 106.73116,0.2769 125.0435,10.85574 V 80.46333 L 64.79693,115.26713 4.55036,80.46333 V 10.85574 L 22.04455,0.74953 Z"
             fill="#de4025"
             stroke-width="1"
             id="path9" />
          <path
             d="m 357.4373,119.33122 49.06909,28.33473 v 56.66946 l -49.06909,28.33473 -49.06909,-28.33473 v -56.66946 z"
             fill="#de4025"
             stroke-width="1"
             id="path10" />
          <path
             d="M 217.61719,283.15016 V 78.85024 h 204.29992 v 204.29992 z"
             fill="none"
             stroke-width="0"
             id="path11" />
          <path
             d="m 312.8881,115.17159 v 24.45883 c 0,4.22135 -3.42204,7.64338 -7.64338,7.64338 h -51.21067 c -4.22135,0 -7.64338,-3.42204 -7.64338,-7.64338 v -24.45883 c 0,-4.22135 3.42204,-7.64338 7.64338,-7.64338 h 51.21067 c 4.22135,0 7.64338,3.42204 7.64338,7.64338 z m 80.25553,0 v 24.45883 c 0,4.22135 -3.42204,7.64338 -7.64338,7.64338 h -51.21067 c -4.22135,0 -7.64338,-3.42204 -7.64338,-7.64338 v -24.45883 c 0,-4.22135 3.42204,-7.64338 7.64338,-7.64338 h 51.21067 c 4.22135,0 7.64338,3.42204 7.64338,7.64338 z m -80.25553,53.5037 v 24.45883 c 0,4.22135 -3.42204,7.64338 -7.64338,7.64338 h -51.21067 c -4.22135,0 -7.64338,-3.42204 -7.64338,-7.64338 v -24.45883 c 0,-4.22135 3.42204,-7.64338 7.64338,-7.64338 h 51.21067 c 4.22135,0 7.64338,3.42204 7.64338,7.64338 z m 80.25553,0.0955 v 24.45883 c 0,4.22135 -3.42204,7.64338 -7.64338,7.64338 h -51.21067 c -4.22135,0 -7.64338,-3.42204 -7.64338,-7.64338 V 168.7708 c 0,-4.22135 3.42204,-7.64338 7.64338,-7.64338 h 51.21067 c 4.22135,0 7.64338,3.42204 7.64338,7.64338 z m -80.25553,53.59919 v 24.45883 c 0,4.22135 -3.42204,7.64338 -7.64338,7.64338 h -51.21067 c -4.22135,0 -7.64338,-3.42204 -7.64338,-7.64338 v -24.45883 c 0,-4.22135 3.42204,-7.64338 7.64338,-7.64338 h 51.21067 c 4.22135,0 7.64338,3.42204 7.64338,7.64338 z m 80.25553,0 v 24.45883 c 0,4.22135 -3.42204,7.64338 -7.64338,7.64338 h -51.21067 c -4.22135,0 -7.64338,-3.42204 -7.64338,-7.64338 v -24.45883 c 0,-4.22135 3.42204,-7.64338 7.64338,-7.64338 h 51.21067 c 4.22135,0 7.64338,3.42204 7.64338,7.64338 z"
             fill="#ffffff"
             stroke-width="1"
             id="path12" />
        </g>
      </g>
    </g>
  </g>
</svg>
<!--rotationCenter:320.24867:179.7231003737709-->
